picto/showers.svg

<svg class="color-immutable" width="24" height="24" viewBox="0 0 24 24" fill="none" xmlns="http://www.w3.org/2000/svg"><path d="M0 22.5V1.5C0 0.675 0.675 0 1.5 0H22.5C23.325 0 24 0.675 24 1.5V22.5C24 23.325 23.325 24 22.5 24H1.5C0.675 24 0 23.325 0 22.5Z" fill="#2D327D"/><path d="M3.38498 18.748C3.29198 18.748 3.21298 18.816 3.19898 18.908L2.91698 20.787C2.91498 20.796 2.91498 20.805 2.91498 20.815C2.91498 20.917 2.99798 21.003 3.10298 21.003C3.19498 21.003 3.27398 20.934 3.28798 20.843L3.56998 18.964C3.57098 18.955 3.57198 18.945 3.57198 18.936C3.57298 18.833 3.48798 18.748 3.38498 18.748Z" fill="white"/><path d="M3.94697 14.999C3.85497 14.999 3.77597 15.066 3.76197 15.157L3.47997 17.038C3.47897 17.045 3.47797 17.056 3.47797 17.066C3.47797 17.168 3.56197 17.252 3.66597 17.252C3.75897 17.252 3.83797 17.184 3.85097 17.094L4.13297 15.213C4.13497 15.206 4.13497 15.195 4.13497 15.185C4.13497 15.083 4.05097 14.999 3.94697 14.999Z" fill="white"/><path d="M4.45295 11.623C4.35995 11.623 4.28095 11.691 4.26795 11.783L3.98595 13.662C3.98495 13.671 3.98395 13.681 3.98395 13.69C3.98395 13.794 4.06795 13.877 4.17195 13.877C4.26495 13.877 4.34295 13.809 4.35795 13.717L4.63895 11.838C4.64095 11.829 4.64195 11.819 4.64195 11.81C4.64195 11.707 4.55695 11.623 4.45295 11.623Z" fill="white"/><path d="M4.62198 10.877C4.71498 10.877 4.79398 10.809 4.80798 10.716L5.08998 8.83801C5.08998 8.82801 5.08998 8.82101 5.08998 8.81101C5.08998 8.70801 5.00698 8.62201 4.90298 8.62201C4.80998 8.62201 4.73098 8.69101 4.71698 8.78301L4.43498 10.661C4.43398 10.671 4.43298 10.68 4.43298 10.689C4.43498 10.793 4.51798 10.877 4.62198 10.877Z" fill="white"/><path d="M5.084 16.124C4.988 16.124 4.908 16.196 4.898 16.291L4.686 18.168C4.685 18.174 4.685 18.181 4.685 18.188C4.685 18.291 4.769 18.375 4.872 18.375C4.968 18.375 5.049 18.303 5.059 18.209L5.27 16.332C5.272 16.326 5.272 16.319 5.272 16.312C5.272 16.208 5.188 16.124 5.084 16.124Z" fill="white"/><path d="M5.463 12.749C5.368 12.749 5.288 12.821 5.277 12.915L5.066 14.792C5.065 14.798 5.065 14.805 5.065 14.812C5.065 14.916 5.149 15 5.252 15C5.348 15 5.428 14.929 5.439 14.833L5.651 12.956C5.651 12.949 5.651 12.943 5.651 12.936C5.651 12.833 5.567 12.749 5.463 12.749Z" fill="white"/><path d="M5.989 9.93599C5.989 9.83299 5.904 9.74899 5.801 9.74899C5.705 9.74899 5.625 9.81999 5.614 9.91399L5.403 11.791C5.402 11.799 5.401 11.806 5.401 11.812C5.401 11.917 5.485 12 5.588 12C5.684 12 5.764 11.928 5.775 11.833L5.986 9.95599C5.988 9.94999 5.989 9.94199 5.989 9.93599Z" fill="white"/><path d="M6.19195 18.749C6.09295 18.749 6.01295 18.826 6.00495 18.923L5.86395 20.799C5.86395 20.804 5.86395 20.809 5.86395 20.813C5.86395 20.916 5.94795 21.001 6.05195 21.001C6.14895 21.001 6.23095 20.925 6.23795 20.827L6.37895 18.951C6.37995 18.947 6.37995 18.942 6.37995 18.938C6.37995 18.834 6.29595 18.749 6.19195 18.749Z" fill="white"/><path d="M6.47397 15C6.37597 15 6.29397 15.075 6.28697 15.173L6.14697 17.05C6.14697 17.056 6.14697 17.059 6.14697 17.063C6.14697 17.168 6.22997 17.252 6.33397 17.252C6.43197 17.252 6.51397 17.177 6.52197 17.079L6.66197 15.202C6.66297 15.197 6.66297 15.194 6.66297 15.188C6.66097 15.083 6.57697 15 6.47397 15Z" fill="white"/><path d="M6.72699 11.624C6.62899 11.624 6.54799 11.701 6.53999 11.798L6.39999 13.674C6.39899 13.679 6.39899 13.684 6.39899 13.688C6.39899 13.791 6.48299 13.876 6.58599 13.876C6.68399 13.876 6.76499 13.8 6.77299 13.702L6.91299 11.826C6.91399 11.822 6.91399 11.817 6.91399 11.813C6.91399 11.708 6.83099 11.624 6.72699 11.624Z" fill="white"/><path d="M6.95099 8.62399C6.85399 8.62399 6.77199 8.69999 6.76499 8.79899L6.62399 10.674C6.62299 10.678 6.62299 10.683 6.62299 10.688C6.62299 10.791 6.70699 10.876 6.80999 10.876C6.90799 10.876 6.98899 10.799 6.99699 10.702L7.13799 8.82599C7.13799 8.82099 7.13799 8.81599 7.13799 8.81099C7.13899 8.70899 7.05599 8.62399 6.95099 8.62399Z" fill="white"/><path d="M7.694 16.125C7.594 16.125 7.511 16.204 7.506 16.304L7.435 18.18C7.435 18.183 7.435 18.185 7.435 18.187C7.435 18.291 7.52 18.375 7.623 18.375C7.724 18.375 7.807 18.294 7.811 18.194L7.882 16.319C7.882 16.316 7.882 16.313 7.882 16.311C7.882 16.209 7.799 16.125 7.694 16.125Z" fill="white"/><path d="M7.82099 12.749C7.72099 12.749 7.63699 12.83 7.63399 12.93L7.56299 14.806C7.56299 14.808 7.56299 14.811 7.56299 14.813C7.56299 14.916 7.64699 15 7.75099 15C7.85199 15 7.93399 14.921 7.93799 14.821L8.00899 12.945C8.00899 12.942 8.00899 12.94 8.00899 12.939C8.00899 12.834 7.92499 12.749 7.82099 12.749Z" fill="white"/><path d="M7.93299 9.74899C7.83299 9.74899 7.74999 9.82999 7.74599 9.92999L7.67499 11.805C7.67499 11.808 7.67499 11.811 7.67499 11.813C7.67599 11.916 7.75999 12 7.86399 12C7.96399 12 8.04799 11.92 8.05099 11.82L8.12199 9.94399C8.12199 9.94099 8.12199 9.93999 8.12199 9.93699C8.12099 9.83499 8.03699 9.74899 7.93299 9.74899Z" fill="white"/><path d="M4.95399 8.249H13.047C13.294 8.249 13.497 8.048 13.497 7.8C13.497 7.759 13.492 7.719 13.481 7.68C12.995 5.933 11.539 4.628 9.74999 4.336V3H8.24999V4.336C6.46099 4.628 5.00599 5.933 4.51999 7.68C4.50899 7.719 4.50299 7.759 4.50299 7.8C4.50299 8.048 4.70499 8.249 4.95399 8.249Z" fill="white"/><path d="M9.00099 8.62601C8.89699 8.62601 8.81299 8.71001 8.81299 8.81201V10.689C8.81299 10.792 8.89699 10.875 9.00099 10.875C9.10299 10.875 9.18799 10.792 9.18799 10.689V8.81101C9.18699 8.70901 9.10299 8.62601 9.00099 8.62601Z" fill="white"/><path d="M9.00099 11.625C8.89699 11.625 8.81299 11.708 8.81299 11.812V13.688C8.81299 13.791 8.89699 13.875 9.00099 13.875C9.10299 13.875 9.18799 13.791 9.18799 13.688V11.812C9.18699 11.708 9.10299 11.625 9.00099 11.625Z" fill="white"/><path d="M9.00099 15C8.89699 15 8.81299 15.083 8.81299 15.189V17.063C8.81299 17.167 8.89699 17.252 9.00099 17.252C9.10299 17.252 9.18799 17.168 9.18799 17.063V15.189C9.18699 15.083 9.10299 15 9.00099 15Z" fill="white"/><path d="M9.00099 18.75C8.89699 18.75 8.81299 18.834 8.81299 18.938V20.814C8.81299 20.916 8.89699 21 9.00099 21C9.10299 21 9.18799 20.917 9.18799 20.813V18.937C9.18699 18.834 9.10299 18.75 9.00099 18.75Z" fill="white"/><path d="M10.137 12C10.24 12 10.324 11.917 10.324 11.813C10.324 11.81 10.324 11.807 10.324 11.805L10.254 9.92999C10.25 9.82999 10.167 9.74899 10.066 9.74899C9.96299 9.74899 9.87799 9.83399 9.87799 9.93599C9.87799 9.93999 9.87799 9.94099 9.87799 9.94299H9.87999L9.94999 11.819C9.95399 11.92 10.036 12 10.137 12Z" fill="white"/><path d="M10.249 15C10.352 15 10.437 14.917 10.437 14.813C10.437 14.81 10.437 14.807 10.437 14.806L10.366 12.93C10.362 12.83 10.279 12.749 10.178 12.749C10.075 12.749 9.99097 12.833 9.99097 12.938C9.99097 12.94 9.99097 12.942 9.99097 12.944L10.061 14.82C10.065 14.921 10.149 15 10.249 15Z" fill="white"/><path d="M10.306 16.125C10.202 16.125 10.117 16.209 10.117 16.312C10.117 16.315 10.118 16.317 10.118 16.32L10.189 18.195C10.193 18.295 10.275 18.376 10.376 18.376C10.479 18.376 10.563 18.292 10.563 18.188C10.563 18.186 10.563 18.184 10.563 18.181L10.493 16.305C10.489 16.204 10.406 16.125 10.306 16.125Z" fill="white"/><path d="M11.377 10.688C11.377 10.683 11.377 10.678 11.376 10.674L11.236 8.79899C11.228 8.69999 11.147 8.62399 11.049 8.62399C10.946 8.62399 10.862 8.70999 10.862 8.81199C10.862 8.81699 10.862 8.82199 10.863 8.82699L11.002 10.703C11.009 10.801 11.091 10.877 11.19 10.877C11.293 10.876 11.377 10.791 11.377 10.688Z" fill="white"/><path d="M11.602 13.688C11.602 13.684 11.602 13.679 11.601 13.674L11.461 11.798C11.454 11.701 11.372 11.624 11.274 11.624C11.17 11.624 11.086 11.709 11.086 11.812C11.086 11.816 11.086 11.821 11.086 11.825L11.226 13.701C11.235 13.799 11.315 13.875 11.414 13.875C11.517 13.875 11.602 13.791 11.602 13.688Z" fill="white"/><path d="M11.855 17.062C11.855 17.058 11.855 17.055 11.855 17.049L11.714 15.172C11.706 15.075 11.625 15 11.527 15C11.424 15 11.339 15.083 11.339 15.187C11.339 15.193 11.339 15.196 11.34 15.201L11.481 17.078C11.488 17.176 11.569 17.251 11.667 17.251C11.771 17.251 11.855 17.167 11.855 17.062Z" fill="white"/><path d="M11.995 18.923C11.988 18.826 11.907 18.749 11.808 18.749C11.704 18.749 11.62 18.833 11.62 18.937C11.62 18.941 11.62 18.946 11.62 18.95L11.761 20.826C11.768 20.923 11.85 21 11.949 21C12.051 21 12.136 20.916 12.136 20.812C12.136 20.808 12.136 20.803 12.135 20.798L11.995 18.923Z" fill="white"/><path d="M12.598 11.813C12.598 11.807 12.598 11.799 12.597 11.792L12.386 9.915C12.375 9.82 12.295 9.75 12.199 9.75C12.096 9.75 12.011 9.833 12.011 9.937C12.011 9.943 12.012 9.951 12.012 9.959L12.224 11.836C12.234 11.93 12.315 12.003 12.41 12.003C12.514 12.002 12.598 11.918 12.598 11.813Z" fill="white"/><path d="M12.936 14.813C12.936 14.806 12.935 14.799 12.934 14.793L12.723 12.916C12.713 12.821 12.632 12.75 12.536 12.75C12.433 12.75 12.349 12.834 12.349 12.937C12.349 12.944 12.349 12.951 12.35 12.957L12.561 14.834C12.572 14.93 12.652 15.001 12.748 15.001C12.851 15.001 12.936 14.917 12.936 14.813Z" fill="white"/><path d="M13.103 16.292C13.092 16.197 13.012 16.125 12.916 16.125C12.813 16.125 12.729 16.208 12.729 16.313C12.729 16.32 12.729 16.327 12.729 16.333L12.941 18.21C12.952 18.305 13.032 18.376 13.127 18.376C13.231 18.376 13.315 18.293 13.315 18.189C13.315 18.182 13.315 18.175 13.314 18.169L13.103 16.292Z" fill="white"/><path d="M13.097 8.62201C12.994 8.62201 12.91 8.70801 12.91 8.81101C12.91 8.82101 12.911 8.82801 12.912 8.83901L13.194 10.717C13.208 10.81 13.287 10.878 13.379 10.878C13.483 10.878 13.567 10.794 13.567 10.689C13.567 10.68 13.567 10.671 13.565 10.661L13.284 8.78301C13.269 8.69101 13.19 8.62201 13.097 8.62201Z" fill="white"/><path d="M14.016 13.69C14.016 13.681 14.015 13.671 14.014 13.662L13.732 11.783C13.718 11.691 13.639 11.623 13.546 11.623C13.443 11.623 13.359 11.708 13.359 11.811C13.359 11.82 13.359 11.83 13.361 11.839L13.643 13.718C13.656 13.809 13.735 13.878 13.828 13.878C13.932 13.877 14.016 13.794 14.016 13.69Z" fill="white"/><path d="M14.523 17.066C14.523 17.056 14.522 17.046 14.521 17.038L14.239 15.157C14.225 15.066 14.146 14.999 14.053 14.999C13.95 14.999 13.866 15.083 13.866 15.185C13.866 15.195 13.867 15.205 13.868 15.213L14.149 17.094C14.163 17.184 14.242 17.252 14.335 17.252C14.438 17.251 14.523 17.168 14.523 17.066Z" fill="white"/><path d="M15.083 20.787L14.8 18.908C14.787 18.816 14.708 18.748 14.615 18.748C14.512 18.748 14.427 18.832 14.427 18.936C14.427 18.945 14.428 18.955 14.429 18.964L14.711 20.843C14.724 20.934 14.804 21.003 14.897 21.003C14.999 21.003 15.084 20.918 15.084 20.815C15.085 20.805 15.084 20.796 15.083 20.787Z" fill="white"/></svg>

<svg class="color-immutable" width="24" height="24" viewBox="0 0 24 24" fill="none" xmlns="http://www.w3.org/2000/svg"><g clip-path="url(#a)"><path d="M0 22.5v-21C0 .675.675 0 1.5 0h21c.825 0 1.5.675 1.5 1.5v21c0 .825-.675 1.5-1.5 1.5h-21C.675 24 0 23.325 0 22.5Z" fill="#2D327D"/><path d="M3.385 18.748a.188.188 0 0 0-.186.16l-.282 1.879c-.002.009-.002.018-.002.028 0 .102.083.188.188.188a.189.189 0 0 0 .185-.16l.282-1.879a.188.188 0 0 0-.185-.216ZM3.947 14.999a.187.187 0 0 0-.185.158l-.282 1.881a.187.187 0 0 0 .186.214.186.186 0 0 0 .185-.158l.282-1.881c.002-.007.002-.018.002-.028a.187.187 0 0 0-.188-.186ZM4.453 11.623a.186.186 0 0 0-.185.16l-.282 1.879a.187.187 0 0 0 .186.215.189.189 0 0 0 .186-.16l.281-1.879a.133.133 0 0 0 .003-.028.188.188 0 0 0-.189-.187ZM4.622 10.877a.188.188 0 0 0 .186-.161l.282-1.878v-.027a.188.188 0 0 0-.187-.189.19.19 0 0 0-.186.161l-.282 1.878-.002.028a.19.19 0 0 0 .189.188ZM5.084 16.124a.187.187 0 0 0-.186.167l-.212 1.877-.001.02a.187.187 0 0 0 .374.021l.211-1.877c.002-.006.002-.013.002-.02a.188.188 0 0 0-.188-.188ZM5.463 12.749a.188.188 0 0 0-.186.166l-.211 1.877-.001.02a.188.188 0 0 0 .374.021l.212-1.877v-.02a.188.188 0 0 0-.188-.187ZM5.989 9.936a.188.188 0 0 0-.375-.022l-.211 1.877-.002.021c0 .105.084.188.187.188a.188.188 0 0 0 .187-.167l.211-1.877a.07.07 0 0 0 .003-.02ZM6.192 18.749a.188.188 0 0 0-.187.174l-.141 1.876v.014a.187.187 0 0 0 .374.014l.141-1.876.001-.013a.189.189 0 0 0-.188-.189ZM6.474 15a.187.187 0 0 0-.187.173l-.14 1.877v.013c0 .105.083.189.187.189.098 0 .18-.075.188-.173l.14-1.877.001-.014A.19.19 0 0 0 6.474 15ZM6.727 11.624a.19.19 0 0 0-.187.174l-.14 1.876-.001.014c0 .103.084.188.187.188a.188.188 0 0 0 .187-.174l.14-1.876.001-.013a.187.187 0 0 0-.187-.189ZM6.951 8.624a.188.188 0 0 0-.186.175l-.141 1.875-.001.014c0 .103.084.188.187.188a.19.19 0 0 0 .187-.174l.141-1.876v-.015a.186.186 0 0 0-.187-.187ZM7.694 16.125c-.1 0-.183.079-.188.179l-.071 1.876v.007a.188.188 0 0 0 .376.007l.071-1.875v-.008a.187.187 0 0 0-.188-.186ZM7.821 12.749c-.1 0-.184.081-.187.181l-.071 1.876v.007a.188.188 0 0 0 .375.008l.071-1.876v-.006a.189.189 0 0 0-.188-.19ZM7.933 9.749c-.1 0-.183.081-.187.181l-.071 1.875v.008a.19.19 0 0 0 .189.187c.1 0 .184-.08.187-.18l.071-1.876v-.007a.19.19 0 0 0-.189-.188ZM4.954 8.249h8.093a.45.45 0 0 0 .434-.569A4.65 4.65 0 0 0 9.75 4.336V3h-1.5v1.336A4.65 4.65 0 0 0 4.52 7.68a.45.45 0 0 0 .434.569ZM9.001 8.626a.187.187 0 0 0-.188.186v1.877c0 .103.084.186.188.186a.187.187 0 0 0 .187-.186V8.811a.188.188 0 0 0-.187-.185ZM9.001 11.625a.187.187 0 0 0-.188.187v1.876a.188.188 0 0 0 .375 0v-1.876a.188.188 0 0 0-.187-.187ZM9.001 15a.187.187 0 0 0-.188.189v1.874c0 .104.084.189.188.189a.188.188 0 0 0 .187-.189v-1.874A.188.188 0 0 0 9.001 15ZM9.001 18.75a.188.188 0 0 0-.188.188v1.876a.187.187 0 0 0 .375-.001v-1.876a.189.189 0 0 0-.187-.187ZM10.137 12a.187.187 0 0 0 .187-.187v-.008l-.07-1.875a.19.19 0 0 0-.188-.181.189.189 0 0 0-.188.187v.007h.002l.07 1.876a.187.187 0 0 0 .187.181ZM10.249 15a.188.188 0 0 0 .188-.187v-.007l-.071-1.876a.188.188 0 0 0-.375.008v.006l.07 1.876c.004.101.088.18.188.18ZM10.306 16.125a.188.188 0 0 0-.189.187l.001.008.071 1.875c.004.1.086.181.187.181a.188.188 0 0 0 .187-.188v-.007l-.07-1.876a.187.187 0 0 0-.187-.18ZM11.377 10.688l-.001-.014-.14-1.875a.189.189 0 0 0-.187-.175.189.189 0 0 0-.186.203l.139 1.876a.188.188 0 0 0 .188.174.19.19 0 0 0 .187-.189ZM11.602 13.688l-.001-.014-.14-1.876a.188.188 0 0 0-.187-.174.188.188 0 0 0-.188.188v.013l.14 1.876a.188.188 0 0 0 .376-.013ZM11.855 17.062v-.013l-.141-1.877a.187.187 0 0 0-.375.015l.001.014.141 1.877a.186.186 0 0 0 .186.173.188.188 0 0 0 .188-.189ZM11.995 18.923a.188.188 0 0 0-.375.014v.013l.141 1.876a.188.188 0 0 0 .375-.014l-.001-.014-.14-1.875ZM12.598 11.813l-.001-.021-.211-1.877a.187.187 0 0 0-.187-.165.188.188 0 0 0-.188.187l.001.022.212 1.877c.01.094.091.167.186.167a.19.19 0 0 0 .188-.19ZM12.936 14.813a.123.123 0 0 0-.002-.02l-.211-1.877a.187.187 0 0 0-.373.041l.211 1.877a.188.188 0 0 0 .375-.021ZM13.103 16.292a.188.188 0 0 0-.187-.167.187.187 0 0 0-.187.188v.02l.212 1.877a.187.187 0 0 0 .186.166.187.187 0 0 0 .188-.187l-.001-.02-.211-1.877ZM13.097 8.622a.19.19 0 0 0-.187.189l.002.028.282 1.878a.188.188 0 0 0 .185.161.188.188 0 0 0 .188-.189c0-.009 0-.018-.002-.028l-.281-1.878a.19.19 0 0 0-.187-.161ZM14.016 13.69a.264.264 0 0 0-.002-.028l-.282-1.879a.188.188 0 0 0-.186-.16.188.188 0 0 0-.185.216l.282 1.879a.187.187 0 0 0 .373-.028ZM14.523 17.066a.23.23 0 0 0-.002-.028l-.282-1.881a.187.187 0 0 0-.371.056l.281 1.881a.188.188 0 0 0 .374-.028ZM15.083 20.787l-.283-1.879a.186.186 0 0 0-.185-.16.188.188 0 0 0-.186.216l.282 1.879c.013.091.093.16.186.16a.189.189 0 0 0 .187-.188c.001-.01 0-.019-.001-.028Z" fill="#fff"/></g><defs><clipPath id="a"><path fill="#fff" d="M0 0h24v24H0z"/></clipPath></defs></svg>
